usr/share/icons/biglinux-icons-material/scalable/mimetypes/application-pgp-signature.svg

<svg width="24" height="24" viewBox="0 0 24 24" fill="none" xmlns="http://www.w3.org/2000/svg">
<rect x="1" y="1" width="22" height="22" rx="6.6" fill="url(#paint0_radial_21_24)"/>
<path d="M16.8141 4.06012C16.6874 4.19107 16.5705 4.3311 16.4642 4.47911L16.1792 4.8549L16.0777 4.78579C15.9351 4.69076 15.799 4.66916 15.6695 4.72748C15.5831 4.76635 15.3714 5.03416 13.9978 6.84185C13.4638 7.53265 12.9397 8.23103 12.4256 8.93678C12.4256 8.94973 12.7754 9.22402 13.1966 9.54366L13.9676 10.1289L14.9935 8.77912C15.555 8.03617 16.0258 7.43577 16.0366 7.44441C16.0733 7.47032 16.136 8.05561 16.123 8.2435C16.109 8.38299 16.0801 8.52057 16.0366 8.65385C15.9653 8.87198 15.9567 8.8871 14.6846 10.5652C13.9827 11.4939 13.3974 12.2822 13.3888 12.3146C13.3564 12.401 13.3888 12.5608 13.4536 12.6537C13.5616 12.8113 13.8315 12.861 13.9849 12.7508C14.0929 12.6731 16.6089 9.32337 16.691 9.14843C16.9243 8.64953 16.9761 8.00809 16.8336 7.37746C16.784 7.15104 16.7154 6.92923 16.6284 6.71442C16.6068 6.66691 16.6435 6.60644 16.8789 6.29544C17.1014 5.99739 17.151 5.91316 17.1554 5.83541C17.1662 5.66912 17.1165 5.57625 16.9545 5.45098L16.8033 5.3322L17.1057 4.93049C17.354 4.59789 17.408 4.5115 17.4124 4.43375C17.4275 4.10332 17.0862 3.8895 16.8141 4.06012Z" fill="#57688E" fill-opacity="0.471"/>
<path d="M9.88357 12.2584C8.07588 14.6428 7.81888 14.9948 7.65258 15.2993C7.31998 15.904 6.95715 16.8262 6.7131 17.6685C6.5576 18.2085 6.55112 18.1609 6.76493 18.0465C7.43013 17.6923 8.29833 17.1178 8.80371 16.6923C9.30045 16.2755 9.38251 16.1697 11.4839 13.4031L13.5054 10.7401L12.7279 10.1505C12.3003 9.82658 11.9461 9.56094 11.9396 9.56309C11.9331 9.56309 11.0088 10.7769 9.88357 12.2584ZM11.9029 15.7399C11.7286 15.7875 11.5656 15.8693 11.4232 15.9806C11.2808 16.0918 11.162 16.2302 11.0736 16.3878C11.0093 16.5174 10.9552 16.6517 10.9116 16.7895C10.8865 16.8783 10.8584 16.9662 10.8274 17.053C10.8058 17.0832 10.2054 17.2258 9.85549 17.2863C9.02616 17.431 8.80155 17.485 8.72164 17.5605C8.56182 17.7074 8.68492 17.8543 8.90954 17.7895C8.97001 17.77 9.22485 17.7204 9.47106 17.6772C9.71727 17.634 10.0931 17.5584 10.3069 17.5087C10.4388 17.4711 10.574 17.4465 10.7107 17.4353C10.6961 17.5648 10.6672 17.6923 10.6244 17.8154L10.525 18.1782L10.2982 18.2754C10.162 18.3357 10.0305 18.4065 9.90517 18.4871C9.6244 18.6728 9.56825 18.9061 9.76695 19.0572C9.87493 19.1393 10.1751 19.1371 10.363 19.0572C10.5293 18.9816 10.6222 18.878 10.7518 18.6037C10.8209 18.4612 10.8727 18.3877 10.9159 18.3769C10.9505 18.364 11.2464 18.3078 11.5768 18.2409L12.2463 18.1026C12.3111 18.0875 12.3176 18.0897 12.2981 18.1502C12.2638 18.2319 12.2226 18.3107 12.175 18.3856C12.125 18.4608 12.0905 18.5452 12.0735 18.6339C12.0735 18.7268 12.1513 18.8197 12.2161 18.7959C12.2381 18.7844 12.2625 18.7777 12.2873 18.7765C12.342 18.7489 12.3916 18.7124 12.4342 18.6685C12.5573 18.5562 12.8575 18.0119 12.8575 17.8996C12.8575 17.8413 12.9007 17.8262 12.9288 17.8715C12.9374 17.8867 13.0087 17.9147 13.0821 17.932C13.1901 17.9601 13.2182 17.9795 13.2182 18.0292C13.2182 18.1221 13.3715 18.2581 13.5076 18.2841C13.6391 18.3005 13.7725 18.2787 13.892 18.2214C13.9438 18.1998 13.946 18.2063 13.9287 18.2862C13.8757 18.4062 13.8105 18.5206 13.7344 18.6274C13.5319 18.9319 13.3639 19.2578 13.2333 19.5993C13.1836 19.7764 13.2052 19.9082 13.2981 19.9708C13.3802 20.0248 13.5184 20.001 13.5918 19.9233C13.7936 19.5611 13.971 19.1859 14.1231 18.8002C14.1899 18.6036 14.3059 18.4274 14.46 18.2884C14.6285 18.1113 14.6825 18.0681 14.6458 18.1372C14.5874 18.2668 14.5896 18.3661 14.6566 18.4266C14.7969 18.5562 15.0021 18.4266 15.1792 18.107C15.285 17.9126 15.3628 17.8564 15.7537 17.6729L15.9589 17.58L15.9373 17.6901C15.8966 17.8204 15.8446 17.9469 15.7818 18.0681C15.6414 18.3661 15.6133 18.5562 15.6975 18.716C15.7559 18.8283 15.8163 18.8305 16.0928 18.7376C16.4772 18.608 16.9783 18.31 17.1078 18.1394C17.2849 17.8975 17.3389 17.6642 17.2309 17.5886C17.1186 17.5066 17.0582 17.5411 16.9156 17.7484C16.754 18.003 16.5313 18.2131 16.2677 18.3596C16.1597 18.4158 16.0669 18.4525 16.0582 18.4417C16.1618 18.1159 16.2807 17.7952 16.4146 17.4806C16.4396 17.4258 16.4564 17.3676 16.4642 17.3079C16.4642 17.2215 16.3563 17.1264 16.2699 17.1264C16.1165 17.1697 15.9687 17.2306 15.8293 17.3079C15.4189 17.513 15.4449 17.5303 15.5485 17.1459C15.6133 16.9083 15.5917 16.8457 15.4492 16.8306C15.311 16.8154 15.2548 16.863 15.1295 17.0876C15.0262 17.2663 14.8924 17.4256 14.7343 17.5584C14.46 17.8111 14.4492 17.8197 14.3844 17.7744C14.2872 17.7052 14.2333 17.716 14 17.8327C13.7711 17.9471 13.6955 17.9623 13.6372 17.8931C13.5897 17.837 13.6652 17.8068 14.0842 17.7247C14.4881 17.6469 14.5378 17.6253 14.5378 17.5411C14.5378 17.4072 14.4298 17.2776 14.2311 17.1891C13.8877 17.0379 13.8488 17.0271 13.6976 17.066C13.5357 17.1092 13.2959 17.3403 13.2614 17.485C13.229 17.634 13.1275 17.5908 13.1275 17.4245C13.111 17.3218 13.0644 17.2263 12.9936 17.1502C12.8921 17.0811 12.7258 17.2323 12.6005 17.5066L12.5012 17.7204L12.2809 17.7679C11.9915 17.8327 11.1535 17.999 11.0412 18.0206C10.9678 18.0335 10.9548 18.0335 10.9721 17.9839L11.0563 17.688C11.1492 17.3165 11.1751 17.2668 11.3111 17.2193C11.599 17.1076 11.8828 16.9858 12.1621 16.8543C12.2702 16.7899 12.3715 16.7146 12.4644 16.6297C12.7668 16.3468 12.8143 16.0855 12.5983 15.8932C12.5456 15.8464 12.4876 15.8058 12.4256 15.7723C12.2567 15.7268 12.0803 15.7165 11.9072 15.7421L11.9029 15.7399ZM12.2895 16.1524C12.35 16.2129 12.35 16.2172 12.296 16.3317C12.2393 16.4246 12.1616 16.503 12.0692 16.5606C11.8856 16.6859 11.3133 16.9169 11.2917 16.8759C11.2701 16.8068 11.4537 16.3943 11.5725 16.2626C11.728 16.0855 11.7733 16.0682 12.0217 16.0811C12.1815 16.0963 12.2441 16.1071 12.2895 16.1546M10.3285 18.6555C10.2896 18.729 10.1881 18.7851 10.1319 18.7635C10.0671 18.7354 10.0823 18.6987 10.1881 18.6447C10.3263 18.5756 10.3695 18.5799 10.3306 18.6598L10.3285 18.6555Z" fill="#57688E" fill-opacity="0.471"/>
<defs>
<radialGradient id="paint0_radial_21_24" cx="0" cy="0" r="1" gradientUnits="userSpaceOnUse" gradientTransform="translate(17.5 1) rotate(116.565) scale(24.5967)">
<stop stop-color="#F4F4F4"/>
<stop offset="1" stop-color="#BBBBBB"/>
</radialGradient>
</defs>
</svg>

<svg xmlns="http://www.w3.org/2000/svg" width="24" height="24" fill="none"><rect width="22" height="22" x="1" y="1" fill="url(#a)" rx="6.6"/><path fill="#57688E" fill-opacity=".471" d="M16.814 4.06a3.74 3.74 0 0 0-.35.42l-.285.375-.101-.07c-.143-.094-.279-.116-.409-.058-.086.04-.298.307-1.671 2.115-.534.69-1.058 1.389-1.572 2.095 0 .013.35.287.77.607l.772.585 1.025-1.35c.562-.743 1.033-1.343 1.044-1.335.036.026.099.612.086.8a1.95 1.95 0 0 1-.086.41c-.072.218-.08.233-1.352 1.911-.702.929-1.288 1.717-1.296 1.75-.033.086 0 .246.065.339.108.157.377.207.53.097.109-.078 2.625-3.428 2.707-3.603.233-.498.285-1.14.143-1.77a4.108 4.108 0 0 0-.206-.664c-.021-.047.015-.108.25-.419.223-.298.273-.382.277-.46.011-.166-.039-.259-.2-.384l-.152-.119.303-.402c.248-.332.302-.418.306-.496.015-.33-.326-.545-.598-.374Z"/><path fill="#57688E" fill-opacity=".471" d="M9.884 12.258c-1.808 2.385-2.065 2.737-2.231 3.041-.333.605-.696 1.527-.94 2.37-.155.54-.162.492.052.378.665-.355 1.533-.93 2.039-1.355.496-.416.579-.522 2.68-3.289l2.021-2.663-.777-.59c-.428-.323-.782-.59-.788-.587-.007 0-.931 1.214-2.056 2.695Zm2.019 3.482a1.361 1.361 0 0 0-.83.648c-.064.13-.118.264-.161.401a4.096 4.096 0 0 1-.085.264c-.021.03-.622.173-.972.233-.829.145-1.053.199-1.133.274-.16.147-.037.294.188.23.06-.02.315-.07.561-.113.246-.043.622-.119.836-.168.132-.038.267-.063.404-.074-.015.13-.044.257-.087.38l-.099.363-.227.097a2.89 2.89 0 0 0-.393.212c-.28.186-.337.42-.138.57.108.082.408.08.596 0 .166-.075.26-.179.389-.453.069-.143.12-.216.164-.227.034-.013.33-.07.66-.136l.67-.138c.065-.016.072-.013.052.047-.034.082-.075.16-.123.236a.68.68 0 0 0-.102.248c0 .093.078.186.143.162a.172.172 0 0 1 .071-.02.55.55 0 0 0 .147-.107c.123-.113.424-.657.424-.77 0-.058.043-.073.07-.027.01.015.08.043.154.06.108.028.136.048.136.097 0 .093.153.23.29.255a.691.691 0 0 0 .384-.063c.052-.021.054-.015.037.065-.053.12-.119.235-.195.341-.202.305-.37.63-.5.972-.05.177-.029.31.064.372.082.054.22.03.294-.048a9.37 9.37 0 0 0 .531-1.123c.067-.196.183-.373.337-.512.168-.177.222-.22.186-.15-.059.129-.056.228.01.289.14.13.346 0 .523-.32.106-.194.184-.25.575-.434l.205-.093-.022.11c-.04.13-.092.257-.155.378-.14.298-.169.488-.085.648.059.112.12.114.396.022.384-.13.885-.428 1.015-.599.177-.241.23-.475.123-.55-.112-.082-.173-.048-.315.16a1.807 1.807 0 0 1-.648.61c-.108.057-.201.093-.21.083.104-.326.223-.647.357-.961a.605.605 0 0 0 .05-.173c0-.087-.109-.182-.195-.182a2.065 2.065 0 0 0-.44.182c-.411.205-.385.222-.281-.162.064-.238.043-.3-.1-.315-.138-.016-.194.032-.32.257a1.775 1.775 0 0 1-.395.47c-.274.253-.285.262-.35.216-.097-.069-.15-.058-.384.059-.229.114-.305.13-.363.06-.047-.056.028-.086.447-.168.404-.078.454-.1.454-.184 0-.134-.108-.263-.307-.352-.343-.151-.382-.162-.533-.123-.162.043-.402.274-.437.419-.032.149-.133.106-.133-.06a.525.525 0 0 0-.134-.275c-.102-.069-.268.082-.393.357l-.1.213-.22.048c-.29.065-1.128.231-1.24.253-.073.012-.086.012-.069-.037l.084-.296c.093-.371.12-.421.255-.469.288-.111.572-.233.851-.365.108-.064.21-.14.302-.224.303-.283.35-.544.134-.737a.916.916 0 0 0-.172-.12 1.275 1.275 0 0 0-.519-.03l-.004-.003Zm.386.412c.061.06.061.065.007.18a.699.699 0 0 1-.227.229c-.183.125-.756.356-.777.315-.022-.07.162-.482.28-.613.156-.178.201-.195.45-.182.16.015.222.026.268.074m-1.961 2.5c-.04.074-.14.13-.197.108-.065-.028-.05-.064.056-.118.138-.07.181-.065.143.015l-.002-.005Z"/><defs><radialGradient id="a" cx="0" cy="0" r="1" gradientTransform="rotate(116.565 8.441 5.908) scale(24.5967)" gradientUnits="userSpaceOnUse"><stop stop-color="#F4F4F4"/><stop offset="1" stop-color="#BBB"/></radialGradient></defs></svg>
